X:510
T:Tea Gardens
M:6/8
L:1/8
C:A. Chisholm
K:G
B2 c|"G"d^cd b2 a|"Em"g2 d B2 d|"Am"cBc ezc|A3- A2 G|
"D"FDF A2 d|f2 d A2 B|"Am"cBc "D"edc|"G"B3 B2 c|
d^cd b2 a|"Em"g2 d B2 d|"Am"cBc ezc|A3- A2 G|
"D"FDF A2 d|f2 d A2 B|"Am"cBc "D"bfa|1"G"g3:|2"G"g3 g2||
z|"G"B,DG BGD|B,DG Bdg|"Am"e^de "Em"B2 =d|"Am"c3- c2 B|
"D"ABc ABc|a2 g f2 e|d^cd ed=c|"G"B3 d3|
"G"B,DG BGD|B,DG Bdg|"Am"e^de "Em"B2 =d|"Am"c3- c2 B|
"D"ABc a2 g|f2 e A2b|"Am"c'bc' "D"e2 f|"G"g3|]

